X:95
T:Kerfunken Jig
M:6/8
L:1/8
R:Jig
Z:added by Alf warnock alf0@rogers.com - http://members.rogers.com/alf0
D:Martin Hayes/Dennis Cahill-Lonesome Touch & Tulla Ceili Band
K:D
~F3FED|FGA Bcd|A2A BAF|~E3 E2D|~F3FED|FGA Bcd|A2A BAF|EFE D3:|
d2d def|B2B BAB|d2d def|fed e2A|~d3 def|~B3 BAB|AFA dAF|EFE D3:|
